app/dist/common/images/new-england-realty-associates-limited-partnership.svg

<svg height="18" viewBox="0 0 18 18" width="18" xmlns="http://www.w3.org/2000/svg"><path d="m0 0h18v18h-18z" fill="#f0f3fa"/><path d="m2 10v2h14v-2h-3v-4h-1.66l-.34.45v3.55h-3.43v-4.35l-.57-.65v5h-.46v-5l-.54.65v4.35z" fill="#64686b"/></svg>

<!-- by TradingView --><svg width="18" height="18" viewBox="0 0 18 18" xmlns="http://www.w3.org/2000/svg"><path fill="#F0F3FA" d="M0 0h18v18H0z"/><path d="M2 10v2h14v-2h-3V6h-1.66l-.34.45V10H7.57V5.65L7 5v5h-.46V5L6 5.65V10H2Z" fill="#64686B"/></svg>
